svgs/duotone/road-barrier.svg

<svg xmlns="http://www.w3.org/2000/svg" viewBox="0 0 640 512"><!--! Font Awesome Pro 7.1.0 by @fontawesome - https://fontawesome.com License - https://fontawesome.com/license (Commercial License) Copyright 2025 Fonticons, Inc. --><path opacity=".4" fill="currentColor" d="M64 96L149.2 96 64 266.3 64 96zm42.8 192l90.6-181.3 5.4-10.7 74.3 0-90.6 181.3-5.4 10.7-74.3 0zm128 0l90.6-181.3 5.4-10.7 74.3 0-90.6 181.3-5.4 10.7-74.3 0zm128 0l90.6-181.3 5.4-10.7 74.3 0-90.6 181.3-5.4 10.7-74.3 0zm128 0l85.2-170.3 0 170.3-85.2 0z"/><path fill="currentColor" d="M64 64c0-17.7-14.3-32-32-32S0 46.3 0 64L0 448c0 17.7 14.3 32 32 32s32-14.3 32-32L64 64zm576 0c0-17.7-14.3-32-32-32s-32 14.3-32 32l0 384c0 17.7 14.3 32 32 32s32-14.3 32-32l0-384z"/></svg>

<svg xmlns="http://www.w3.org/2000/svg" viewBox="0 0 640 512"><!--! Font Awesome Pro 6.6.0 by @fontawesome - https://fontawesome.com License - https://fontawesome.com/license (Commercial License) Copyright 2024 Fonticons, Inc. --><defs><style>.fa-secondary{opacity:.4}</style></defs><path class="fa-secondary" d="M64 96l85.2 0L64 266.3 64 96zm42.8 192l90.6-181.3L202.8 96l74.3 0L186.5 277.3 181.2 288l-74.3 0zm128 0l90.6-181.3L330.8 96l74.3 0L314.5 277.3 309.2 288l-74.3 0zm128 0l90.6-181.3L458.8 96l74.3 0L442.5 277.3 437.2 288l-74.3 0zm128 0L576 117.7 576 288l-85.2 0z"/><path class="fa-primary" d="M64 64c0-17.7-14.3-32-32-32S0 46.3 0 64L0 448c0 17.7 14.3 32 32 32s32-14.3 32-32L64 64zm576 0c0-17.7-14.3-32-32-32s-32 14.3-32 32l0 384c0 17.7 14.3 32 32 32s32-14.3 32-32l0-384z"/></svg>
